icons/sti.svg

<svg width="48" height="48" viewBox="0 0 48 48" fill="none" xmlns="http://www.w3.org/2000/svg">
<path fill-rule="evenodd" clip-rule="evenodd" d="M28.5 8.5C28.5 10.9853 26.4853 13 24 13C21.5148 13 19.5 10.9853 19.5 8.5C19.5 6.01472 21.5148 4 24 4C26.4853 4 28.5 6.01472 28.5 8.5ZM26.5 8.5C26.5 9.88071 25.3807 11 24 11C22.6193 11 21.5 9.88071 21.5 8.5C21.5 7.11929 22.6193 6 24 6C25.3807 6 26.5 7.11929 26.5 8.5Z" fill="black"/>
<path fill-rule="evenodd" clip-rule="evenodd" d="M30 19C29.4477 19 29 19.4477 29 20V25.0001C29 25.2661 29.106 25.5212 29.2945 25.7088C29.483 25.8965 29.7386 26.0013 30.0046 26.0001L30.0188 26H30.0212C31.4691 25.9995 32.4495 25.521 33.0649 24.8936C33.6907 24.2554 34.0083 23.3932 33.9998 22.5096C33.9913 21.6257 33.6563 20.7549 33.0185 20.1088C32.3916 19.4737 31.4164 19 30.0183 19H30ZM31.6369 23.4932C31.5246 23.6078 31.3303 23.7578 31 23.8649V21.1486C31.2912 21.2527 31.4769 21.3939 31.5951 21.5138C31.8451 21.767 31.996 22.1305 31.9999 22.5288C32.0037 22.9247 31.8626 23.2631 31.6369 23.4932Z" fill="black"/>
<path fill-rule="evenodd" clip-rule="evenodd" d="M31 30L31 29.9845V29.9524C32.9669 29.7582 34.6646 28.9751 35.9207 27.6943C37.351 26.2358 38.0174 24.3237 37.9996 22.4712C37.9818 20.6207 37.2817 18.7338 35.8652 17.2988C34.4163 15.8308 32.3816 15 30.0183 15H16.5999C15.4808 15 14.4546 15.623 13.9383 16.616L11.3383 21.616C10.6774 22.8869 11.0073 24.4477 12.1259 25.3426L17 29.2419V33L17 33.0107L17 41C17 42.604 18.2617 43.9242 19.8641 43.9969C21.4664 44.0696 22.8425 42.869 22.9877 41.2716L23.6488 34H24.3513L25.0124 41.2716C25.1576 42.869 26.5336 44.0696 28.136 43.9969C29.7383 43.9242 31 42.604 31 41L31 30ZM15.7127 17.5387C15.8848 17.2077 16.2269 17 16.5999 17H30.0188C31.8996 17 33.404 17.6523 34.4419 18.7038C35.469 19.7443 35.9866 21.1232 35.9997 22.4904C36.0128 23.8585 35.5208 25.2457 34.4928 26.2939C33.4552 27.3519 31.9367 27.9995 30.0211 28H30.0188L30.0046 27.9999C29.7386 27.9987 29.483 28.1035 29.2945 28.2912C29.106 28.4789 29 28.7339 29 28.9999V29.9845L29 29.9883L29 30V41C29 41.5347 28.5795 41.9747 28.0454 41.999C27.5112 42.0232 27.0525 41.623 27.0041 41.0905L26.2604 32.9095C26.2438 32.7265 26.1785 32.5587 26.0782 32.4185C27.2305 31.7164 28 30.4481 28 29C28 26.7909 26.2092 25 24 25C23.1424 25 22.3478 25.2699 21.6965 25.7295C21.679 25.6941 21.6608 25.659 21.642 25.6242C21.1432 24.7014 20.1582 23.9323 19.0695 23.178L19 23.1299V20C19 19.4477 18.5523 19 18 19H17.8142C17.4411 19 17.0991 19.2077 16.927 19.5387L15.6453 22.0034C15.425 22.4271 15.5349 22.9474 15.9078 23.2457L17.1291 24.2227L17.1085 24.2524L17.9304 24.822C19.055 25.6011 19.6412 26.1287 19.8826 26.5752C19.9833 26.7615 20.0131 26.9174 19.9981 27.0827C19.9815 27.2648 19.9034 27.5259 19.6773 27.8971C19.5995 28.0248 19.5438 28.0652 19.5304 28.0739C19.5231 28.0786 19.5191 28.0812 19.499 28.0821C19.4195 28.0857 19.2202 28.0472 18.8578 27.8366C18.5132 27.6363 18.1442 27.3555 17.7376 27.0374L17.6271 26.9508C17.2762 26.6756 16.8821 26.3665 16.5203 26.146L15.7293 25.6641L13.3753 23.7809C13.0024 23.4826 12.8924 22.9623 13.1127 22.5387L15.7127 17.5387ZM19.5898 30.08C19.3874 30.0892 19.1899 30.07 19 30.0311V32.9893L19 33L19 41C19 41.5347 19.4206 41.9747 19.9547 41.999C20.4888 42.0232 20.9475 41.623 20.9959 41.0905L21.7397 32.9095C21.7563 32.7265 21.8215 32.5587 21.9219 32.4185C21.0405 31.8815 20.3831 31.0133 20.1227 29.9867C19.9542 30.0399 19.7764 30.0716 19.5898 30.08ZM24 31C25.1046 31 26 30.1046 26 29C26 27.8954 25.1046 27 24 27C22.8955 27 22 27.8954 22 29C22 30.1046 22.8955 31 24 31Z" fill="black"/>
</svg>

<svg
  xmlns="http://www.w3.org/2000/svg"
  width="24"
  height="24"
  viewBox="0 0 24 24"
  fill="none"
  stroke="currentColor"
  stroke-width="2"
  stroke-linecap="round"
  stroke-linejoin="round"
>
  <path
    fill-rule="evenodd"
    d="M28.5 8.5a4.5 4.5 0 1 1-9 0 4.5 4.5 0 0 1 9 0m-2 0a2.5 2.5 0 1 1-5 0 2.5 2.5 0 0 1 5 0"
    clip-rule="evenodd"
  />
  <path
    fill-rule="evenodd"
    d="M30 19a1 1 0 0 0-1 1v5a1 1 0 0 0 1.005 1h.016c1.448 0 2.428-.479 3.044-1.106.626-.639.943-1.5.935-2.384a3.46 3.46 0 0 0-.981-2.401c-.627-.635-1.603-1.109-3-1.109zm1.637 4.493a1.5 1.5 0 0 1-.637.372v-2.716c.291.104.477.245.595.365.25.253.401.617.405 1.015.004.396-.137.734-.363.964"
    clip-rule="evenodd"
  />
  <path
    fill-rule="evenodd"
    d="M31 30v-.048c1.967-.194 3.665-.977 4.92-2.258 1.431-1.458 2.097-3.37 2.08-5.223a7.46 7.46 0 0 0-2.135-5.172C34.416 15.83 32.382 15 30.018 15H16.6a3 3 0 0 0-2.662 1.616l-2.6 5a3 3 0 0 0 .788 3.727L17 29.242V41a3 3 0 0 0 5.988.272l.66-7.272h.703l.661 7.272A3 3 0 0 0 31 41zM15.713 17.539A1 1 0 0 1 16.6 17h13.419c1.88 0 3.385.652 4.423 1.704A5.46 5.46 0 0 1 36 22.49c.013 1.369-.48 2.756-1.507 3.804C33.455 27.352 31.937 28 30.02 28h-.016A1 1 0 0 0 29 29v12a1 1 0 0 1-1.996.09l-.744-8.18a1 1 0 0 0-.182-.491 4 4 0 1 0-4.382-6.689l-.054-.106c-.499-.923-1.484-1.692-2.572-2.446L19 23.13V20a1 1 0 0 0-1-1h-.186a1 1 0 0 0-.887.539l-1.282 2.464a1 1 0 0 0 .263 1.243l1.221.977-.02.03.821.569c1.125.78 1.711 1.307 1.953 1.753.1.187.13.342.115.508-.017.182-.095.443-.32.814a.55.55 0 0 1-.148.177c-.007.005-.01.007-.031.008-.08.004-.279-.035-.641-.245-.345-.2-.714-.482-1.12-.8l-.11-.086c-.352-.275-.746-.585-1.108-.805l-.79-.482-2.355-1.883a1 1 0 0 1-.262-1.242zM19.59 30.08c-.203.01-.4-.01-.59-.049V41a1 1 0 0 0 1.996.09l.744-8.18a1 1 0 0 1 .182-.491 4 4 0 0 1-1.8-2.432 2 2 0 0 1-.532.093M24 31a2 2 0 1 0 0-4 2 2 0 0 0 0 4"
    clip-rule="evenodd"
  />
</svg>
